X:1015
T:Reel du Forgeron
R:reel
C:Omer Dumas (1889-1980)
O:Quebec, Canada
Z:id:hn-reel-1015
M:C|
L:1/8
K:Amix
ceec e2fe | cefe aefe | cABd cfed | cdef gfed |
ceec e2fe | cefe aefe | cABd cfed | cABd cAA2 :|
|: cdcB AEEE |[M:3/2] FEB,E CEB,E CEA,2 |
[M:C|] cdcB AEAB |[M:3/2] ceef ecBc A3B :|
[M:C|] cdcB AEEE |[M:3/2] FEB,E CEB,E CEA,2 |
[M:C|] cdcB AEAB |[M:3/2] ceef ecBc A3B ||

